packages/icons/src/reload.svg

<svg width="15" height="15" viewBox="0 0 15 15" fill="none" xmlns="http://www.w3.org/2000/svg">
  <path
    fill-rule="evenodd"
    clip-rule="evenodd"
    d="M1.84998 7.49998C1.84998 4.66458 4.05979 1.84998 7.49998 1.84998C10.2783 1.84998 11.6515 3.9064 12.2367 5H10.5C10.2239 5 10 5.22386 10 5.5C10 5.77614 10.2239 6 10.5 6H13.5C13.7761 6 14 5.77614 14 5.5V2.5C14 2.22386 13.7761 2 13.5 2C13.2239 2 13 2.22386 13 2.5V4.31318C12.2955 3.07126 10.6659 0.849976 7.49998 0.849976C3.43716 0.849976 0.849976 4.18537 0.849976 7.49998C0.849976 10.8146 3.43716 14.15 7.49998 14.15C9.44382 14.15 11.0622 13.3808 12.2145 12.2084C12.8315 11.5806 13.3133 10.839 13.6418 10.0407C13.7469 9.78536 13.6251 9.49315 13.3698 9.38806C13.1144 9.28296 12.8222 9.40478 12.7171 9.66014C12.4363 10.3425 12.0251 10.9745 11.5013 11.5074C10.5295 12.4963 9.16504 13.15 7.49998 13.15C4.05979 13.15 1.84998 10.3354 1.84998 7.49998Z"
    fill="currentColor"
  />
</svg>

<svg xmlns="http://www.w3.org/2000/svg" width="15" height="15" fill="none"><path fill="currentColor" fill-rule="evenodd" d="M1.85 7.5c0-2.835 2.21-5.65 5.65-5.65 2.778 0 4.152 2.056 4.737 3.15H10.5a.5.5 0 0 0 0 1h3a.5.5 0 0 0 .5-.5v-3a.5.5 0 0 0-1 0v1.813C12.296 3.071 10.666.85 7.5.85 3.437.85.85 4.185.85 7.5s2.587 6.65 6.65 6.65c1.944 0 3.562-.77 4.714-1.942a6.8 6.8 0 0 0 1.428-2.167.5.5 0 1 0-.925-.38 5.8 5.8 0 0 1-1.216 1.846c-.971.99-2.336 1.643-4.001 1.643-3.44 0-5.65-2.815-5.65-5.65" clip-rule="evenodd"/></svg>
